poi/svg/1123.svg

<?xml version="1.0" encoding="UTF-8" standalone="no"?>
<svg
   xmlns:dc="http://purl.org/dc/elements/1.1/"
   xmlns:cc="http://creativecommons.org/ns#"
   xmlns:rdf="http://www.w3.org/1999/02/22-rdf-syntax-ns#"
   xmlns:svg="http://www.w3.org/2000/svg"
   xmlns="http://www.w3.org/2000/svg"
   xmlns:sodipodi="http://sodipodi.sourceforge.net/DTD/sodipodi-0.dtd"
   xmlns:inkscape="http://www.inkscape.org/namespaces/inkscape"
   inkscape:version="1.0 (4035a4fb49, 2020-05-01)"
   sodipodi:docname="1123.svg"
   id="svg20"
   version="1.2"
   viewBox="0 0 42.519639 42.519639"
   height="14.999999mm"
   width="14.999999mm">
  <metadata
     id="metadata24">
    <rdf:RDF>
      <cc:Work
         rdf:about="">
        <dc:format>image/svg+xml</dc:format>
        <dc:type
           rdf:resource="http://purl.org/dc/dcmitype/StillImage" />
        <dc:title>Qt SVG Document</dc:title>
      </cc:Work>
    </rdf:RDF>
  </metadata>
  <sodipodi:namedview
     inkscape:current-layer="svg20"
     inkscape:window-maximized="0"
     inkscape:window-y="0"
     inkscape:window-x="0"
     inkscape:cy="28.346482"
     inkscape:cx="28.346482"
     inkscape:zoom="5.8410537"
     showgrid="false"
     id="namedview22"
     inkscape:window-height="480"
     inkscape:window-width="1034"
     inkscape:pageshadow="2"
     inkscape:pageopacity="0"
     guidetolerance="10"
     gridtolerance="10"
     objecttolerance="10"
     borderopacity="1"
     bordercolor="#666666"
     pagecolor="#ffffff" />
  <title
     id="title2">Qt SVG Document</title>
  <desc
     id="desc4">Generated with Qt</desc>
  <defs
     id="defs6" />
  <g
     transform="translate(5.25984,5.25984)"
     id="g18"
     stroke-linejoin="bevel"
     stroke-linecap="square"
     fill-rule="evenodd"
     stroke-width="1"
     stroke="#000000"
     fill="none">
    <g
       id="g10"
       font-style="normal"
       font-weight="400"
       font-size="7.8px"
       font-family="'MS Shell Dlg 2'"
       stroke="none"
       fill-opacity="1"
       fill="#3d97f1">
      <path
         id="path8"
         d="M 37.2598,16 C 37.2598,27.7415 27.7415,37.2598 16,37.2598 4.25851,37.2598 -5.25984,27.7415 -5.25984,16 -5.25984,4.25851 4.25851,-5.25984 16,-5.25984 27.7415,-5.25984 37.2598,4.25851 37.2598,16"
         fill-rule="evenodd"
         vector-effect="non-scaling-stroke" />
    </g>
    <g
       id="g14"
       font-style="normal"
       font-weight="400"
       font-size="7.8px"
       font-family="'MS Shell Dlg 2'"
       transform="translate(16,13.1654)"
       stroke="none"
       fill-opacity="0.94902"
       fill="#ffffff">
      <path
         id="path12"
         d="m 3.22461,-2.04199 c 1.14779,-1.20378 2.22559,-2.20459 3.2334,-3.00244 0.43392,-0.34994 0.87134,-0.67538 1.31225,-0.97632 0.44092,-0.30095 0.86434,-0.5389 1.27027,-0.71387 0.40592,-0.17497 0.78035,-0.27645 1.12327,-0.30444 0.343,-0.028 0.6264,0.06299 0.8504,0.27295 0.1959,0.22396 0.2869,0.5074 0.2729,0.85034 -0.014,0.34293 -0.105,0.73136 -0.2729,1.16528 -0.168,0.43392 -0.4095,0.87834 -0.7244,1.33325 C 9.97485,-2.96232 9.64242,-2.5179 9.29248,-2.08398 8.46663,-1.04818 7.46582,0.0576172 6.29004,1.2334 L 7.5708,15.5527 5.76514,17.9043 2.44775,4.84473 l -7.55859,6.40377 -0.29395,4.8921 -0.77685,0.7769 -2.37256,-3.9053 -4.1152,-2.5825 0.8608,-0.69288 5.10206,-0.08399 6.10986,-7.87353 -12.59762,-3.82129 1.9736,-1.15479 14.44531,1.15479"
         fill-rule="evenodd"
         vector-effect="none" />
    </g>
    <g
       id="g16"
       font-style="normal"
       font-weight="400"
       font-size="7.8px"
       font-family="'MS Shell Dlg 2'"
       stroke="none"
       fill-opacity="1"
       fill="#3d97f1" />
  </g>
</svg>

<?xml version="1.0" encoding="UTF-8" standalone="no"?>
<svg width="11.2889mm" height="11.2889mm"
 viewBox="0 0 32 32"
 xmlns="http://www.w3.org/2000/svg" xmlns:xlink="http://www.w3.org/1999/xlink"  version="1.2" baseProfile="tiny">
<title>Qt SVG Document</title>
<desc>Generated with Qt</desc>
<defs>
</defs>
<g fill="none" stroke="black" stroke-width="1" fill-rule="evenodd" stroke-linecap="square" stroke-linejoin="bevel" >

<g fill="#3d97f1" fill-opacity="1" stroke="none" transform="matrix(1,0,0,1,0,0)"
font-family="MS Shell Dlg 2" font-size="7.8" font-weight="400" font-style="normal" 
>
<path vector-effect="non-scaling-stroke" fill-rule="evenodd" d="M37.2598,16 C37.2598,27.7415 27.7415,37.2598 16,37.2598 C4.25851,37.2598 -5.25984,27.7415 -5.25984,16 C-5.25984,4.25851 4.25851,-5.25984 16,-5.25984 C27.7415,-5.25984 37.2598,4.25851 37.2598,16 "/>
</g>

<g fill="#ffffff" fill-opacity="0.94902" stroke="none" transform="matrix(1,0,0,1,16,13.1654)"
font-family="MS Shell Dlg 2" font-size="7.8" font-weight="400" font-style="normal" 
>
<path vector-effect="none" fill-rule="evenodd" d="M3.22461,-2.04199 C4.3724,-3.24577 5.4502,-4.24658 6.45801,-5.04443 C6.89193,-5.39437 7.32935,-5.71981 7.77026,-6.02075 C8.21118,-6.3217 8.6346,-6.55965 9.04053,-6.73462 C9.44645,-6.90959 9.82088,-7.01107 10.1638,-7.03906 C10.5068,-7.06706 10.7902,-6.97607 11.0142,-6.76611 C11.2101,-6.54215 11.3011,-6.25871 11.2871,-5.91577 C11.2731,-5.57284 11.1821,-5.18441 11.0142,-4.75049 C10.8462,-4.31657 10.6047,-3.87215 10.2898,-3.41724 C9.97485,-2.96232 9.64242,-2.5179 9.29248,-2.08398 C8.46663,-1.04818 7.46582,0.0576172 6.29004,1.2334 L7.5708,15.5527 L5.76514,17.9043 L2.44775,4.84473 L-5.11084,11.2485 L-5.40479,16.1406 L-6.18164,16.9175 L-8.5542,13.0122 L-12.6694,10.4297 L-11.8086,9.73682 L-6.70654,9.65283 L-0.59668,1.7793 L-13.1943,-2.04199 L-11.2207,-3.19678 L3.22461,-2.04199"/>
</g>

<g fill="#3d97f1" fill-opacity="1" stroke="none" transform="matrix(1,0,0,1,0,0)"
font-family="MS Shell Dlg 2" font-size="7.8" font-weight="400" font-style="normal" 
>
</g>
</g>
</svg>
